<?xml version="1.0" encoding="UTF-8"?>
<map version="1.10" tiledversion="1.11.2" orientation="orthogonal" renderorder="right-down" width="120" height="20" tilewidth="64" tileheight="64" infinite="0" nextlayerid="4" nextobjectid="1">
 <tileset firstgid="1" name="Tiles" tilewidth="64" tileheight="64" tilecount="208" columns="26">
  <image source="tiles/Universal-Tiles.png" width="1664" height="512"/>
 </tileset>
 <tileset firstgid="209" name="enemies" tilewidth="64" tileheight="64" tilecount="6" columns="0">
  <grid orientation="orthogonal" width="1" height="1"/>
  <tile id="0">
   <image source="tiles/pyroslug.webp" width="64" height="64"/>
  </tile>
  <tile id="1">
   <image source="tiles/roundhoglet.webp" width="64" height="64"/>
  </tile>
  <tile id="4">
   <image source="tiles/glowcrush_sheller.webp" width="64" height="64"/>
  </tile>
  <tile id="6">
   <image source="tiles/drafty_wizor.webp" width="64" height="64"/>
  </tile>
  <tile id="7">
   <image source="tiles/pepperjelly.webp" width="64" height="64"/>
  </tile>
  <tile id="8">
   <image source="tiles/skuttershot.webp" width="64" height="64"/>
  </tile>
 </tileset>
 <layer id="1" name="background" width="120" height="20">
  <data encoding="csv">
62,62,62,62,62,62,62,62,62,62,62,62,62,62,62,62,62,62,62,62,62,62,62,64,79,79,79,79,79,79,79,79,79,9,11,11,11,12,79,79,79,79,79,79,79,79,79,79,79,79,79,79,79,79,79,79,79,79,79,79,79,9,11,11,11,11,11,12,79,79,79,79,79,79,79,79,79,79,79,79,79,79,79,9,12,9,11,11,12,195,195,195,195,195,195,195,125,127,127,127,127,127,127,127,127,127,127,128,195,195,195,195,195,195,125,127,127,127,128,178,
62,62,62,62,62,62,62,62,62,62,62,62,62,62,62,62,62,62,62,62,62,62,62,64,79,79,79,79,79,79,79,79,79,35,62,62,62,33,11,12,79,79,79,79,79,79,79,79,79,79,79,79,79,79,79,79,79,79,79,9,12,35,62,62,62,62,62,33,11,11,11,11,11,12,79,79,79,79,79,79,79,79,9,32,64,35,62,62,33,12,195,195,195,195,195,125,148,178,178,178,178,178,178,178,178,178,178,149,128,195,195,195,195,125,148,178,178,178,180,178,
62,62,62,62,62,62,9,11,11,11,12,62,62,62,62,62,62,62,62,62,62,62,62,33,12,79,79,79,79,79,79,79,9,32,62,62,62,62,62,33,11,12,79,79,79,79,79,79,79,79,79,79,79,79,79,79,79,9,11,32,64,87,88,58,62,62,62,62,62,62,62,62,62,33,11,12,79,79,79,79,79,9,32,62,64,35,62,62,62,33,12,195,195,195,125,148,178,178,178,178,178,178,178,178,178,178,178,178,149,128,195,195,195,151,178,178,178,178,180,178,
62,62,62,62,9,11,32,62,62,62,64,62,62,62,62,62,62,62,62,62,9,12,62,62,33,11,11,11,11,11,11,11,32,62,62,62,62,62,62,62,62,33,11,11,11,11,11,11,11,7,81,82,9,11,11,11,11,32,62,62,33,11,12,87,88,58,62,62,62,62,62,62,62,62,62,33,11,11,11,11,11,32,62,62,64,87,58,62,62,62,64,195,195,125,148,178,178,178,178,178,178,178,178,178,178,178,178,178,178,149,127,127,127,148,178,178,178,178,180,178,
62,62,62,9,32,62,62,62,59,88,90,62,62,62,62,62,62,62,62,9,32,64,62,62,62,62,62,62,62,62,62,62,62,62,62,62,62,62,62,62,62,62,62,62,62,62,62,62,62,64,9,11,32,62,62,62,62,62,62,62,62,62,33,11,12,87,58,62,62,62,62,62,62,62,62,62,62,62,62,62,62,62,62,62,33,12,35,62,62,62,33,12,125,148,178,178,178,178,178,178,178,178,178,178,178,178,178,178,178,178,178,178,178,178,178,178,178,178,180,178,
62,62,62,35,62,59,88,88,90,62,62,62,62,9,11,11,11,11,11,32,62,64,62,62,59,88,88,88,88,88,88,88,58,62,62,62,62,62,62,62,62,59,88,88,88,88,88,88,88,90,87,88,88,88,88,88,88,62,62,62,62,62,62,62,33,12,87,58,62,62,62,62,62,62,62,59,88,88,88,88,88,62,62,62,62,64,87,58,62,62,59,90,203,178,178,178,178,178,178,175,204,204,174,178,178,178,178,178,178,178,178,178,178,178,178,178,178,178,180,178,
62,62,62,87,88,90,62,62,62,62,62,62,62,87,58,62,62,62,62,59,88,90,62,59,90,79,79,79,79,79,79,79,87,58,62,62,62,62,62,59,88,90,79,79,79,79,79,79,79,79,79,79,79,79,79,79,79,87,88,58,62,62,62,62,62,33,12,87,58,62,62,62,62,59,88,90,79,79,79,79,79,87,58,62,62,62,12,35,62,59,90,195,195,203,204,204,174,178,175,206,195,195,203,174,178,178,178,178,178,178,178,178,178,178,178,178,178,178,180,178,
62,62,62,62,62,62,62,62,62,62,62,62,62,62,87,88,88,88,88,90,62,62,62,64,79,79,79,79,79,79,79,79,79,35,62,62,62,59,88,90,79,79,79,79,79,79,79,79,79,79,79,79,79,79,79,79,79,79,79,87,88,58,62,62,62,62,33,12,87,88,88,88,88,90,79,79,79,79,79,79,79,79,87,58,62,62,64,35,59,90,195,195,195,195,195,195,203,205,206,195,195,195,195,203,204,204,174,178,178,178,178,178,178,178,178,178,178,178,180,178,
62,62,62,62,62,62,62,62,62,62,62,62,62,62,62,62,62,62,62,62,62,62,62,64,79,79,79,79,79,79,79,79,79,87,88,88,88,90,79,79,79,79,79,79,79,79,79,79,79,79,79,79,79,79,79,79,79,79,79,79,79,87,88,88,88,88,88,90,79,79,79,79,79,79,79,79,79,79,79,79,79,79,79,87,88,88,90,87,90,195,195,195,195,195,195,195,195,169,195,195,195,195,195,195,195,195,203,204,204,204,204,204,174,178,178,178,178,178,180,178,
79,79,79,79,79,79,79,79,79,79,79,79,79,79,79,79,79,79,79,79,79,79,79,79,79,79,79,79,79,79,79,79,79,79,79,79,79,79,79,79,79,79,79,79,79,79,79,79,79,79,79,79,79,79,79,79,79,79,79,79,79,79,79,79,79,79,79,79,79,79,79,79,79,79,79,79,79,79,79,79,79,79,79,79,79,79,79,79,79,79,79,79,79,79,79,79,79,79,79,79,195,195,195,195,195,195,195,195,195,195,195,195,151,178,178,178,178,178,180,79,
21,23,23,23,23,23,23,23,23,23,23,23,19,93,93,18,23,23,23,24,91,91,91,91,21,23,23,24,91,91,91,21,24,91,91,91,91,91,91,91,21,23,23,23,23,19,93,93,93,93,93,93,18,23,23,23,23,23,23,23,24,91,91,91,91,195,195,195,125,127,127,127,127,127,127,127,127,127,127,127,127,127,127,128,195,195,195,195,195,195,195,195,195,195,195,195,195,195,195,195,195,195,195,195,195,195,195,195,195,195,195,195,151,178,178,178,178,178,180,178,
47,74,71,100,100,100,100,70,74,74,74,71,102,21,24,99,100,100,70,45,24,91,91,21,44,74,74,45,24,91,91,47,45,24,91,91,91,91,91,21,44,74,74,74,74,76,91,91,91,91,91,91,99,70,74,74,74,74,74,74,76,91,91,91,91,195,195,125,148,178,178,178,178,178,178,178,178,178,178,178,178,178,178,149,127,127,127,127,128,195,195,195,195,195,195,195,195,195,195,195,195,195,195,195,195,195,195,195,195,195,125,127,148,178,178,178,178,178,180,178,
99,100,102,21,23,23,24,99,100,100,100,102,21,44,45,23,23,24,47,71,97,18,23,44,71,100,100,100,75,23,23,44,74,45,23,23,23,23,23,44,74,74,74,74,74,76,91,91,91,91,91,91,91,47,74,74,74,74,74,74,45,24,91,91,91,195,125,148,178,178,178,178,178,178,178,178,178,178,178,178,178,178,178,178,178,178,178,178,149,127,127,127,127,127,127,128,195,195,195,195,195,195,195,195,195,195,195,195,125,127,148,178,178,178,178,178,178,178,180,178,
21,24,92,73,74,74,45,23,24,21,23,24,47,74,74,74,71,102,69,102,91,99,70,74,76,91,91,91,47,74,74,71,100,100,70,74,74,74,74,74,74,74,74,74,74,45,24,91,91,91,91,91,21,44,74,74,74,74,74,74,74,45,24,91,91,195,151,178,178,178,178,178,178,178,178,178,178,178,178,178,178,178,178,178,178,178,178,178,178,178,178,178,178,178,178,149,127,127,127,127,127,127,127,127,127,127,127,127,148,178,178,178,178,178,178,178,178,178,180,178,
47,45,24,99,70,74,71,100,102,47,74,76,99,100,100,100,102,21,46,91,91,91,47,74,45,23,23,23,44,74,74,76,91,91,47,74,71,100,100,100,70,74,74,74,74,74,45,23,23,23,23,23,44,74,74,74,74,74,74,74,74,74,76,125,127,127,148,178,178,178,178,178,175,204,204,204,204,174,178,178,178,178,178,178,178,178,178,178,178,178,178,178,178,178,178,178,178,178,178,178,178,178,178,178,178,178,178,178,178,178,178,178,178,178,178,178,178,175,206,178,
47,74,45,24,99,100,102,21,23,44,74,45,23,24,21,23,23,44,45,24,91,91,47,74,74,74,74,74,74,74,74,45,23,23,44,71,102,91,91,91,99,70,74,74,74,74,74,74,74,74,74,74,74,74,74,74,74,74,74,74,74,74,76,203,204,204,174,178,178,178,175,204,206,195,195,195,195,203,204,174,178,178,178,178,178,178,178,178,178,178,178,178,178,178,178,178,178,178,178,178,178,178,178,178,178,178,178,178,178,178,178,178,178,178,175,204,204,206,195,178,
47,74,74,45,23,23,23,44,74,74,74,74,71,102,47,74,74,74,74,45,23,23,48,100,100,100,100,100,100,100,70,74,74,74,74,76,91,91,91,91,91,47,74,74,74,74,74,74,74,74,71,100,100,100,100,100,70,74,74,74,74,74,76,91,91,195,203,174,178,175,206,195,195,195,195,195,195,195,195,203,204,174,178,178,178,178,178,178,178,178,178,175,204,204,204,204,204,204,204,204,204,204,204,204,174,178,178,178,178,178,178,178,178,175,206,195,195,195,195,178,
47,74,74,74,74,74,74,74,74,74,74,74,76,21,44,74,74,74,74,74,74,71,102,91,91,91,91,91,91,91,99,100,100,100,100,75,24,91,91,91,21,44,74,74,74,74,74,74,74,71,102,91,91,91,91,91,99,70,74,74,74,71,102,91,91,195,195,203,174,180,195,195,195,195,195,195,195,195,195,195,195,203,204,204,174,178,178,178,178,175,204,206,195,195,195,195,195,195,195,195,195,195,195,195,203,204,204,204,174,178,178,178,175,206,195,195,195,195,195,178,
99,100,100,100,100,100,100,100,100,100,100,100,102,99,100,100,100,100,100,100,100,102,91,91,91,91,91,91,91,91,91,91,91,91,91,99,97,93,93,93,96,100,100,100,100,100,100,100,100,102,91,91,91,91,91,91,91,99,100,100,100,102,91,91,91,195,195,195,203,206,195,195,195,195,195,195,195,195,195,195,195,195,195,195,203,204,204,204,204,206,195,195,195,195,195,195,195,195,195,195,195,195,195,195,195,195,195,195,203,204,204,204,206,195,195,195,195,195,195,178,
79,79,79,79,79,79,79,79,79,79,79,79,79,79,79,79,79,79,79,79,79,79,79,79,79,79,79,79,79,79,79,79,79,79,79,79,79,79,79,79,79,79,79,79,79,79,79,79,79,79,79,79,79,79,79,79,79,79,79,79,79,79,79,79,79,79,79,79,79,79,79,79,79,79,79,79,79,79,79,79,79,79,79,79,79,79,79,79,79,79,79,79,79,79,79,79,79,79,79,79,79,79,79,79,79,79,79,79,79,79,79,79,79,79,79,79,79,79,79,79
</data>
 </layer>
 <layer id="2" name="obstacles" width="120" height="20">
  <data encoding="csv">
0,0,0,0,0,0,0,0,0,0,0,0,0,0,0,0,0,0,0,0,0,0,0,0,37,37,37,37,37,37,37,37,37,0,0,0,0,0,37,37,37,37,37,37,37,37,37,37,37,37,37,37,37,37,37,37,37,37,37,37,37,0,0,0,0,0,0,0,37,37,37,37,37,37,37,37,37,37,37,37,37,37,37,0,0,0,0,0,0,51,196,122,127,123,198,51,0,0,0,0,0,0,0,0,0,0,0,0,37,37,37,37,37,37,0,0,0,0,0,51,
0,0,0,0,0,0,0,0,0,0,0,0,0,0,0,0,0,0,0,0,0,0,0,0,37,37,37,37,37,37,37,37,37,0,0,0,0,0,0,0,37,37,37,37,37,37,37,37,37,37,37,37,37,37,37,37,37,37,37,0,0,0,0,0,0,0,0,0,0,0,0,0,0,0,37,37,37,37,37,37,37,37,0,0,0,0,0,0,0,0,51,203,204,206,51,0,0,0,0,0,0,0,0,0,0,0,0,0,0,37,37,37,37,0,0,0,0,0,0,51,
0,0,0,0,0,0,0,0,0,0,0,0,0,0,0,0,0,0,0,0,0,0,0,0,0,37,37,37,37,37,37,37,0,0,0,0,0,0,0,0,0,0,37,37,37,37,37,37,37,37,37,37,37,37,37,37,37,0,0,0,0,0,0,0,0,0,0,0,0,0,0,0,0,0,0,0,37,37,37,37,37,0,0,0,0,0,0,0,0,0,0,51,51,51,0,0,0,0,0,0,0,0,0,0,0,0,0,0,0,0,37,37,37,0,0,0,0,0,0,51,
0,0,0,0,0,0,0,0,0,0,0,0,0,0,0,0,0,0,0,0,0,0,0,0,0,0,0,0,0,0,0,0,0,0,0,0,0,0,0,0,0,0,0,0,0,0,0,0,0,0,0,0,0,0,0,0,0,0,0,0,0,0,0,0,0,0,0,0,0,0,0,0,0,0,0,0,0,0,0,0,0,0,0,0,0,0,0,0,0,0,0,51,51,0,0,0,0,0,0,0,0,0,0,0,0,0,0,0,0,0,0,0,0,0,0,0,0,0,0,51,
0,0,0,0,0,0,0,0,0,0,0,0,0,0,0,0,0,0,0,0,0,0,0,0,0,0,0,0,0,0,0,0,0,0,0,0,0,0,0,0,0,0,0,0,0,0,0,0,0,0,0,0,0,0,0,0,0,0,0,0,0,0,0,0,0,0,0,0,0,0,0,0,0,0,0,0,0,0,0,0,0,0,0,0,0,0,0,0,0,0,0,0,0,0,0,0,0,0,0,0,0,0,0,0,0,0,0,0,0,0,0,0,0,0,0,0,0,0,0,51,
0,0,0,0,0,0,0,0,0,0,0,0,0,0,0,0,0,0,0,0,0,0,0,0,0,0,0,0,0,0,0,0,0,0,0,0,0,0,0,0,0,0,0,0,0,0,0,0,0,0,0,0,0,0,0,0,0,0,0,0,0,0,0,0,0,0,0,0,0,0,0,0,0,0,0,0,0,0,0,0,0,0,0,0,0,0,0,0,0,0,0,0,0,0,0,0,0,0,0,0,0,0,0,0,0,0,0,0,0,0,0,0,0,0,0,0,0,0,0,51,
0,0,0,0,0,0,0,0,0,0,0,0,0,0,0,0,0,0,0,0,0,0,0,0,0,37,37,37,37,37,37,37,0,0,0,0,0,0,0,0,0,0,37,37,37,37,37,37,37,37,37,37,37,37,37,37,37,0,0,0,0,0,0,0,0,0,0,0,0,0,0,0,0,0,0,0,37,37,37,37,37,0,0,0,0,0,0,0,0,0,0,51,51,0,0,0,0,0,0,0,37,37,0,0,0,0,0,0,0,0,0,0,0,0,0,0,0,0,0,51,
0,0,0,0,0,0,0,0,0,0,0,0,0,0,0,0,0,0,0,0,0,0,0,0,37,37,37,37,37,37,37,37,37,0,0,0,0,0,0,0,37,37,37,37,37,37,37,37,37,37,37,37,37,37,37,37,37,37,37,0,0,0,0,0,0,0,0,0,0,0,0,0,0,0,37,37,37,37,37,37,37,37,0,0,0,0,0,0,0,0,51,125,128,51,51,51,0,0,0,37,37,37,37,0,0,0,0,0,0,0,0,0,0,0,0,0,0,0,0,51,
0,0,0,0,0,0,0,0,0,0,0,0,0,0,0,0,0,0,0,0,0,0,0,0,37,37,37,37,37,37,37,37,37,0,0,0,0,0,37,37,37,37,37,37,37,37,37,37,37,37,37,37,37,37,37,37,37,37,37,37,37,0,0,0,0,0,0,0,37,37,37,37,37,37,37,37,37,37,37,37,37,37,37,0,0,0,0,0,0,51,196,200,201,197,197,198,51,0,37,37,37,37,37,37,37,37,0,0,0,0,0,0,0,0,0,0,0,0,0,51,
51,51,51,51,51,51,51,51,51,51,51,51,51,51,51,51,51,51,51,51,51,51,51,51,51,51,51,51,51,51,51,51,51,51,51,51,51,51,51,51,51,51,51,51,51,51,51,51,51,51,51,51,51,51,51,51,51,51,51,51,51,51,51,51,51,51,51,51,51,51,51,51,51,51,51,51,51,51,51,51,51,51,51,51,51,51,51,51,51,51,51,51,51,51,51,51,51,51,51,51,37,37,37,37,37,37,37,37,37,37,37,37,0,0,0,0,0,0,0,51,
0,0,0,0,0,0,0,0,0,0,0,0,0,0,0,0,0,0,0,0,77,77,77,77,0,0,0,0,77,77,77,0,0,77,77,77,77,77,77,77,0,0,0,0,0,0,0,0,0,0,0,0,0,0,0,0,0,0,0,0,0,51,21,23,127,123,198,51,0,0,0,0,0,0,0,0,0,0,0,0,0,0,0,0,37,37,37,37,37,37,37,37,37,37,37,37,37,37,37,37,37,37,37,37,37,37,37,37,37,37,37,37,0,0,0,0,0,0,0,51,
0,0,0,0,0,0,0,0,0,0,0,0,0,0,0,0,0,0,0,0,0,77,77,0,0,0,0,0,0,77,77,0,0,0,77,77,77,77,77,0,0,0,0,0,0,0,77,77,77,77,77,77,0,0,0,0,0,0,0,0,0,51,99,74,175,206,51,0,0,0,0,0,0,0,0,0,0,0,0,0,0,0,0,0,0,0,0,0,0,37,37,37,37,37,37,37,37,37,37,37,37,37,37,37,37,37,37,37,37,37,0,0,0,0,0,0,0,0,0,51,
0,0,0,0,0,0,0,0,0,0,0,0,0,0,0,0,0,0,0,0,0,0,0,0,0,0,0,0,0,0,0,0,0,0,0,0,0,0,0,0,0,0,0,0,0,0,77,77,77,77,77,77,77,0,0,0,0,0,0,0,0,0,51,99,206,51,0,0,0,0,0,0,0,0,0,0,0,0,0,0,0,0,0,0,0,0,0,0,0,0,0,0,0,0,0,0,37,37,37,37,37,37,37,37,37,37,37,37,0,0,0,0,0,0,0,0,0,0,0,51,
0,0,0,0,0,0,0,0,0,0,0,0,0,0,0,0,0,0,0,0,77,0,0,0,0,77,77,77,0,0,0,0,0,0,0,0,0,0,0,0,0,0,0,0,0,0,0,77,77,77,77,77,0,0,0,0,0,0,0,0,0,0,0,51,51,51,0,0,0,0,0,0,0,0,0,0,0,0,0,0,0,0,0,0,0,0,0,0,0,0,0,0,0,0,0,0,0,0,0,0,0,0,0,0,0,0,0,0,0,0,0,0,0,0,0,0,0,0,0,51,
0,0,0,0,0,0,0,0,0,0,0,0,0,0,0,0,0,0,0,77,77,77,0,0,0,0,0,0,0,0,0,0,77,77,0,0,0,0,0,0,0,0,0,0,0,0,0,0,0,0,0,0,0,0,0,0,0,0,0,0,0,0,0,0,0,0,0,0,0,0,0,0,0,0,0,0,0,0,0,0,0,0,0,0,0,0,0,0,0,0,0,0,0,0,0,0,0,0,0,0,0,0,0,0,0,0,0,0,0,0,0,0,0,0,0,0,0,0,0,51,
0,0,0,0,0,0,0,0,0,0,0,0,0,0,0,0,0,0,0,0,77,77,0,0,0,0,0,0,0,0,0,0,0,0,0,0,0,77,77,77,0,0,0,0,0,0,0,0,0,0,0,0,0,0,0,0,0,0,0,0,0,0,0,0,0,0,0,0,0,0,0,0,0,37,37,37,37,0,0,0,0,0,0,0,0,0,0,0,0,0,0,0,0,0,0,0,0,0,0,0,0,0,0,0,0,0,0,0,0,0,0,0,0,0,0,0,0,0,37,51,
0,0,0,0,0,0,0,0,0,0,0,0,0,0,0,0,0,0,0,0,0,0,0,0,0,0,0,0,0,0,0,0,0,0,0,0,77,77,77,77,77,0,0,0,0,0,0,0,0,0,0,0,0,0,0,0,0,0,0,0,0,0,0,51,51,51,0,0,0,0,0,37,37,37,37,37,37,37,37,0,0,0,0,0,0,0,0,0,0,0,0,0,0,0,0,0,0,0,0,0,0,0,0,0,0,0,0,0,0,0,0,0,0,0,0,37,37,37,37,51,
0,0,0,0,0,0,0,0,0,0,0,0,0,0,0,0,0,0,0,0,0,0,0,77,77,77,77,77,77,77,0,0,0,0,0,0,0,77,77,77,0,0,0,0,0,0,0,0,0,0,0,77,77,77,77,77,0,0,0,0,0,0,0,51,21,128,51,0,0,0,37,37,37,37,37,37,37,37,37,37,37,0,0,0,0,0,0,0,0,0,0,0,37,37,37,37,37,37,37,37,37,37,37,37,0,0,0,0,0,0,0,0,0,0,37,37,37,37,37,51,
0,0,0,0,0,0,0,0,0,0,0,0,0,0,0,0,0,0,0,0,0,0,77,77,77,77,77,77,77,77,77,77,77,77,77,0,0,0,0,0,0,0,0,0,0,0,0,0,0,0,77,77,77,77,77,77,77,0,0,0,0,0,51,21,44,149,128,51,0,0,37,37,37,37,37,37,37,37,37,37,37,37,37,37,0,0,0,0,0,0,37,37,37,37,37,37,37,37,37,37,37,37,37,37,37,37,37,37,0,0,0,0,0,37,37,37,37,37,37,51,
51,51,51,51,51,51,51,51,51,51,51,51,51,51,51,51,51,51,51,51,51,51,51,51,51,51,51,51,51,51,51,51,51,51,51,51,51,51,51,51,51,51,51,51,51,51,51,51,51,51,51,51,51,51,51,51,51,51,51,51,51,51,51,47,74,178,180,51,51,51,51,51,51,51,51,51,51,51,51,51,51,51,51,51,51,51,51,51,51,51,51,51,51,51,51,51,51,51,51,51,51,51,51,51,51,51,51,51,51,51,51,51,51,51,51,51,51,51,51,51
</data>
 </layer>
 <layer id="3" name="entities" width="120" height="20">
  <data encoding="csv">
0,0,0,0,0,0,0,0,0,0,0,0,0,0,0,0,0,0,0,0,0,0,0,0,0,0,0,0,0,0,0,0,0,0,0,0,0,0,0,0,0,0,0,0,0,0,0,0,0,0,0,0,0,0,0,0,0,0,0,0,0,0,0,0,0,0,0,0,0,0,0,0,0,0,0,0,0,0,0,0,0,0,0,0,0,0,0,0,0,0,0,0,0,0,0,0,0,0,0,0,0,0,0,0,0,0,0,0,0,0,0,0,0,0,0,0,0,0,0,0,
0,0,0,0,0,0,0,0,0,0,0,0,0,0,0,0,0,0,0,0,0,0,0,0,0,0,0,0,0,0,0,0,0,0,0,0,0,0,0,0,0,0,0,0,0,0,0,0,0,0,0,0,0,0,0,0,0,0,0,0,0,0,0,0,0,215,0,0,0,0,0,0,0,0,0,0,0,0,0,0,0,0,0,0,0,0,0,0,0,0,0,0,0,0,0,0,0,0,0,0,0,0,0,0,0,217,0,0,0,0,0,0,0,0,0,0,0,0,0,0,
0,0,0,0,0,0,0,0,0,0,0,0,210,0,0,0,0,0,0,0,0,0,0,0,0,0,0,0,0,0,0,0,0,210,0,0,0,0,0,0,0,0,0,0,0,0,0,0,0,0,0,0,0,0,0,0,0,0,0,0,0,0,0,0,0,0,0,0,0,0,0,0,0,0,0,0,0,0,0,0,0,0,0,0,0,0,0,0,0,0,0,0,0,0,0,0,0,0,0,0,0,0,0,0,0,0,0,0,0,0,0,0,0,0,0,0,0,0,213,0,
0,0,0,0,0,0,0,0,0,0,0,0,0,0,0,0,0,0,0,0,0,0,0,0,0,0,0,0,0,0,0,0,0,0,0,0,0,0,0,0,0,0,0,0,0,0,0,0,0,0,210,0,0,0,0,0,0,0,0,0,0,0,0,0,0,0,0,0,0,0,210,0,0,0,0,0,0,0,0,0,0,0,0,0,0,0,215,0,0,0,0,0,0,0,0,0,0,0,0,0,0,0,0,0,0,0,0,0,0,0,0,0,0,0,0,0,0,0,0,0,
0,0,0,0,0,0,0,0,0,0,0,0,0,0,0,0,0,0,0,0,0,0,0,0,0,0,0,0,0,0,0,0,0,0,0,0,0,0,0,0,0,0,0,0,0,0,0,0,0,0,0,0,0,0,0,0,0,0,0,0,0,0,0,0,0,0,0,0,0,0,0,0,0,0,0,0,0,0,0,0,0,0,0,0,0,217,0,0,0,0,0,0,0,0,0,0,0,0,0,0,0,0,0,0,0,0,0,0,217,0,0,0,0,0,0,0,0,0,0,0,
0,0,0,0,0,0,0,0,0,0,0,0,0,0,0,210,0,0,0,0,0,0,0,0,0,0,0,0,0,0,0,0,0,0,0,0,0,0,0,0,0,0,0,0,0,0,0,0,0,0,0,0,0,0,0,217,0,0,0,0,0,0,0,0,0,0,0,0,0,215,0,0,0,0,0,0,0,0,0,0,0,0,0,0,0,0,0,0,0,0,0,0,0,0,0,0,0,0,0,0,0,0,0,0,0,0,0,0,0,0,0,0,0,0,0,0,0,0,0,0,
0,0,0,0,0,0,0,0,0,0,0,0,0,0,0,0,0,0,0,0,0,0,0,0,0,0,0,0,0,0,0,0,0,0,0,0,0,0,0,0,0,0,0,0,0,0,0,0,0,0,0,0,0,0,0,0,0,0,0,0,0,0,0,0,0,0,0,0,0,0,0,0,0,0,0,0,0,0,0,0,0,0,0,0,0,0,0,0,0,0,0,0,0,0,0,0,0,0,0,0,0,0,0,0,0,0,0,0,0,0,0,0,0,0,0,0,0,0,0,0,
0,0,0,0,0,0,0,0,0,0,0,0,0,0,0,0,0,0,0,0,0,0,0,0,0,0,0,0,0,0,0,0,0,0,0,217,0,0,0,0,0,0,0,0,0,0,0,0,0,0,0,0,0,0,0,0,0,0,0,0,0,0,0,0,0,0,0,0,0,0,0,0,0,0,0,0,0,0,0,0,0,0,0,0,0,0,0,0,0,0,0,0,0,0,0,0,0,0,0,0,0,0,0,0,0,0,0,0,0,0,0,0,0,0,0,0,0,0,0,0,
0,0,0,0,0,0,0,0,0,0,0,0,0,0,0,0,0,0,0,0,0,0,0,0,0,0,0,0,0,0,0,0,0,0,0,0,0,0,0,0,0,0,0,0,0,0,0,0,0,0,0,0,0,0,0,0,0,0,0,0,0,0,0,0,0,0,0,0,0,0,0,0,0,0,0,0,0,0,0,0,0,0,0,0,0,0,0,0,0,0,0,0,0,0,0,0,0,0,0,0,0,0,0,0,0,0,0,0,0,0,0,0,0,0,0,0,0,0,0,0,
0,0,0,0,0,0,0,0,0,0,0,0,0,0,0,0,0,0,0,0,0,0,0,0,0,0,0,0,0,0,0,0,0,0,0,0,0,0,0,0,0,0,0,0,0,0,0,0,0,0,0,0,0,0,0,0,0,0,0,0,0,0,0,0,0,0,0,0,0,0,0,0,0,0,0,0,0,0,0,0,0,0,0,0,0,0,0,0,0,0,0,0,0,0,0,0,0,0,0,0,0,0,0,0,0,0,0,0,0,0,0,0,0,0,0,0,0,0,0,0,
0,0,0,0,0,0,0,0,0,0,0,0,0,0,0,0,0,0,0,0,0,0,0,0,0,0,0,0,0,0,0,0,0,0,0,0,0,0,0,0,0,0,0,0,0,0,0,0,0,0,0,0,0,0,0,0,0,0,0,0,0,0,0,0,0,0,0,0,0,0,0,0,0,0,0,0,0,0,0,0,0,0,0,0,0,0,0,0,0,0,0,0,0,0,0,0,0,0,0,0,0,0,0,0,0,0,0,0,0,0,0,0,0,0,0,0,0,0,0,0,
0,0,0,0,0,0,0,0,0,0,0,0,0,0,0,0,0,0,0,0,0,0,0,0,0,209,0,0,0,0,0,0,0,0,0,0,0,0,0,0,0,0,0,0,0,0,0,0,0,0,0,0,0,0,0,0,0,0,0,0,0,0,0,0,0,0,0,0,0,0,0,0,0,0,0,0,216,0,0,0,0,0,0,0,0,0,0,0,0,0,0,0,0,0,0,0,0,0,0,0,0,0,0,0,0,0,0,0,0,0,0,0,0,0,0,0,0,0,0,0,
0,0,0,0,0,0,0,0,0,0,0,0,0,0,0,0,0,0,0,0,0,0,0,0,0,0,0,0,0,0,0,0,0,0,0,0,0,0,0,0,0,0,209,0,0,0,0,0,0,0,0,0,0,0,0,0,0,0,0,0,0,0,0,0,0,0,0,0,0,0,0,0,0,0,0,0,0,0,0,0,0,0,0,0,0,0,0,0,0,0,0,0,0,0,0,0,0,0,0,0,0,0,0,0,0,0,0,0,0,0,0,0,0,0,0,0,0,0,0,0,
0,0,0,0,0,0,0,0,0,0,0,0,0,0,209,0,0,0,0,0,0,0,0,0,0,0,0,0,0,0,0,0,0,0,0,0,0,0,0,0,0,0,0,0,0,0,0,0,0,0,0,0,0,0,0,0,0,0,0,0,0,0,0,0,0,0,0,0,0,0,0,0,0,0,0,0,0,0,213,0,0,0,0,0,0,0,0,0,0,0,0,0,0,0,0,0,0,0,0,0,0,0,0,0,0,0,0,0,0,0,0,0,0,0,0,0,0,0,0,0,
0,0,0,0,0,0,0,0,0,0,0,0,0,0,0,0,0,0,0,0,0,0,0,0,0,0,0,0,0,0,0,0,0,0,0,0,0,0,0,0,0,0,0,0,0,0,0,0,0,0,0,0,0,0,0,0,0,0,0,0,0,0,0,0,0,0,0,0,0,0,0,0,0,0,217,0,0,0,0,0,0,0,0,0,0,0,0,0,0,0,0,0,0,0,0,216,0,0,0,0,0,0,0,0,0,0,0,0,0,0,0,0,0,0,0,0,0,0,0,0,
0,0,0,0,0,0,0,0,0,0,0,0,0,0,0,0,0,0,0,0,0,0,0,0,0,209,0,0,0,0,0,0,0,0,0,0,0,0,0,0,0,0,0,0,0,0,0,0,0,0,0,0,0,0,0,0,0,0,0,0,0,0,0,0,0,0,0,0,0,0,0,0,0,0,0,0,0,0,0,0,0,0,0,0,0,0,0,0,0,0,0,0,0,0,0,0,0,0,0,0,0,0,0,0,0,0,0,0,0,0,213,0,0,0,0,0,0,0,0,0,
0,0,0,0,0,0,0,0,0,0,0,0,0,0,0,0,0,0,0,0,0,0,0,0,0,0,0,0,0,0,0,0,0,0,0,0,0,0,0,0,0,0,0,0,0,0,0,0,0,0,0,0,0,0,0,0,0,0,0,0,0,0,0,0,0,0,0,0,0,0,0,0,0,0,0,0,0,0,0,0,0,0,0,0,0,0,0,0,0,216,0,0,0,0,0,0,0,0,0,0,0,0,0,0,0,0,0,0,0,0,0,0,0,0,0,0,0,0,0,0,
0,0,0,0,0,0,0,0,0,0,0,0,0,0,209,0,0,0,0,0,0,0,0,0,0,0,0,0,0,0,0,0,0,0,0,0,0,0,0,0,0,0,0,0,0,0,0,0,209,0,0,0,0,0,0,0,0,0,0,0,0,0,0,0,0,0,0,0,0,0,0,0,0,0,0,0,0,0,0,0,0,0,0,0,0,0,0,0,0,0,0,0,0,0,0,0,0,0,0,0,0,0,0,0,0,0,0,0,0,0,0,0,0,0,0,0,0,0,0,0,
0,0,0,0,0,0,0,0,0,0,0,0,0,0,0,0,0,0,0,0,0,0,0,0,0,0,0,0,0,0,0,0,0,0,0,0,0,0,0,0,0,0,0,0,0,0,0,0,0,0,0,0,0,0,0,0,0,0,0,0,0,0,0,0,0,0,0,0,0,0,0,0,0,0,0,0,0,0,0,0,0,0,0,0,0,0,0,0,0,0,0,0,0,0,0,0,0,0,0,0,0,0,0,0,0,0,0,0,0,0,0,0,0,0,0,0,0,0,0,0,
0,0,0,0,0,0,0,0,0,0,0,0,0,0,0,0,0,0,0,0,0,0,0,0,0,0,0,0,0,0,0,0,0,0,0,0,0,0,0,0,0,0,0,0,0,0,0,0,0,0,0,0,0,0,0,0,0,0,0,0,0,0,0,0,0,0,0,0,0,0,0,0,0,0,0,0,0,0,0,0,0,0,0,0,0,0,0,0,0,0,0,0,0,0,0,0,0,0,0,0,0,0,0,0,0,0,0,0,0,0,0,0,0,0,0,0,0,0,0,0
</data>
 </layer>
</map>
